X: 1
T: Lasses' Fashions, The
M: 4/4
L: 1/8
R: reel
K: Dmaj
EF|:DB, (3B,B,B, DA,A,F|DB, (3B,B,B, F2 EF|DB, (3B,B,B, DA,A,D|1B,CDE F2 EF:|2B,CDE F2 EB||
ADBD FEEB|ADBA (3FFF Fd|1ADBD FDEF|DB,DE F2 EF:|2dcBd AdFD|B,CDE FD||
